build/img/sprite/icon-oops.svg

<svg width="58" height="58" viewBox="0 0 58 58" fill="none" xmlns="http://www.w3.org/2000/svg">
<circle cx="29" cy="29" r="29" fill="#E55050"/>
<g clip-path="url(#clip0_751_40293)">
<path d="M41.8809 21.2361H37.8545V17.906C37.8545 16.7375 36.9038 15.7869 35.7354 15.7869H21.2646C20.0962 15.7869 19.1455 16.7375 19.1455 17.906V26.0193H15.1191C13.9506 26.0193 13 26.97 13 28.1385V37.7654C13 38.9339 13.9506 39.8846 15.1191 39.8846H17.4199V41.6975C17.4199 42.2753 17.7411 42.7944 18.2583 43.0522C18.4739 43.1597 18.7052 43.2126 18.9352 43.2126C19.2567 43.2126 19.5756 43.109 19.8445 42.9063L23.8548 39.8845H29.5898C30.7583 39.8845 31.709 38.9338 31.709 37.7654V35.1013H33.1452L37.1554 38.1231C37.4245 38.3259 37.7432 38.4294 38.0648 38.4294C38.2947 38.4294 38.5262 38.3764 38.7417 38.269C39.2589 38.0112 39.5801 37.4921 39.5801 36.9143V35.1013H41.8809C43.0494 35.1013 44 34.1507 44 32.9822V23.3553C44 22.1868 43.0494 21.2361 41.8809 21.2361ZM42.1836 32.9822C42.1836 33.1491 42.0478 33.2849 41.8809 33.2849H38.6719C38.1703 33.2849 37.7637 33.6916 37.7637 34.1931V36.3071L33.9956 33.4678C33.8381 33.3491 33.6462 33.2849 33.449 33.2849H27.4102C27.2432 33.2849 27.1074 33.1491 27.1074 32.9821V23.3552C27.1074 23.1883 27.2432 23.0525 27.4102 23.0525H41.8809C42.0478 23.0525 42.1836 23.1883 42.1836 23.3552V32.9822ZM29.5898 38.0681H23.551C23.3538 38.0681 23.1619 38.1324 23.0044 38.2511L19.2363 41.0903V38.9763C19.2363 38.4748 18.8297 38.0681 18.3281 38.0681H15.1191C14.9522 38.0681 14.8164 37.9323 14.8164 37.7654V28.1385C14.8164 27.9715 14.9522 27.8357 15.1191 27.8357H25.291V32.9822C25.291 34.1507 26.2417 35.1013 27.4102 35.1013H29.8926V37.7654C29.8926 37.9323 29.7568 38.0681 29.5898 38.0681ZM21.2646 17.6033H35.7354C35.9023 17.6033 36.0381 17.7391 36.0381 17.906V21.2361H27.4102C26.2417 21.2361 25.291 22.1868 25.291 23.3553V26.0193H20.9619V17.906C20.9619 17.7391 21.0977 17.6033 21.2646 17.6033Z" fill="white"/>
</g>
<defs>
<clipPath id="clip0_751_40293">
<rect width="31" height="31" fill="white" transform="translate(13 14)"/>
</clipPath>
</defs>
</svg>

<svg width="58" height="58" fill="none" xmlns="http://www.w3.org/2000/svg"><circle cx="29" cy="29" r="29" fill="#E55050"/><g clip-path="url(#clip0_751_40293)"><path d="M41.88 21.236h-4.026v-3.33c0-1.168-.95-2.12-2.119-2.12h-14.47c-1.169 0-2.12.952-2.12 2.12v8.113H15.12a2.122 2.122 0 00-2.119 2.12v9.626c0 1.169.95 2.12 2.12 2.12h2.3v1.813c0 .577.321 1.096.838 1.354a1.508 1.508 0 001.586-.146l4.01-3.022h5.736c1.168 0 2.119-.95 2.119-2.119v-2.664h1.436l4.01 3.022a1.508 1.508 0 001.587.146c.517-.258.838-.777.838-1.355v-1.813h2.3c1.17 0 2.12-.95 2.12-2.119v-9.627c0-1.168-.95-2.119-2.12-2.119zm.304 11.746a.303.303 0 01-.303.303h-3.21a.908.908 0 00-.907.908v2.114l-3.768-2.84a.908.908 0 00-.547-.182H27.41a.303.303 0 01-.303-.303v-9.627c0-.167.136-.303.303-.303h14.47c.168 0 .304.136.304.303v9.627zM29.59 38.068h-6.04a.908.908 0 00-.547.183l-3.768 2.84v-2.115a.908.908 0 00-.908-.908H15.12a.303.303 0 01-.303-.303v-9.627c0-.167.136-.302.303-.302h10.172v5.146c0 1.169.95 2.12 2.12 2.12h2.482v2.663a.303.303 0 01-.303.303zm-8.325-20.465h14.47c.167 0 .303.136.303.303v3.33H27.41c-1.168 0-2.119.95-2.119 2.12v2.663h-4.33v-8.113c0-.167.137-.303.304-.303z" fill="#fff"/></g><defs><clipPath id="clip0_751_40293"><path fill="#fff" transform="translate(13 14)" d="M0 0h31v31H0z"/></clipPath></defs></svg>
